packages/ffe-icons/icons/open/400/sm/arrows_more_up.svg

<svg xmlns="http://www.w3.org/2000/svg" height="20" viewBox="0 -960 960 960" width="20"><path d="M516.211-216Q501-216 490.5-226.35 480-236.7 480-252v-300H180q-15.3 0-25.65-10.289-10.35-10.29-10.35-25.5Q144-603 154.35-613.5 164.7-624 180-624h336q15.3 0 25.65 10.35Q552-603.3 552-588v336q0 15.3-10.289 25.65-10.29 10.35-25.5 10.35Zm192-192Q693-408 682.5-418.35 672-428.7 672-444v-300H372q-15.3 0-25.65-10.289-10.35-10.29-10.35-25.5Q336-795 346.35-805.5 356.7-816 372-816h336q15.3 0 25.65 10.35Q744-795.3 744-780v336q0 15.3-10.289 25.65-10.29 10.35-25.5 10.35Z"/></svg>

<svg xmlns="http://www.w3.org/2000/svg" height="20" viewBox="0 -960 960 960" width="20"><path d="M516.21-216q-15.21 0-25.71-10.35T480-252v-300H180q-15.3 0-25.65-10.29Q144-572.58 144-587.79t10.35-25.71Q164.7-624 180-624h336q15.3 0 25.65 10.35Q552-603.3 552-588v336q0 15.3-10.29 25.65Q531.42-216 516.21-216Zm192-192q-15.21 0-25.71-10.35T672-444v-300H372q-15.3 0-25.65-10.29Q336-764.58 336-779.79t10.35-25.71Q356.7-816 372-816h336q15.3 0 25.65 10.35Q744-795.3 744-780v336q0 15.3-10.29 25.65Q723.42-408 708.21-408Z"/></svg>
